img/svg/avbryt-sykmelding-roed.svg

<?xml version="1.0" encoding="UTF-8" standalone="no"?>
<svg width="46px" height="46px" viewBox="0 0 46 46" version="1.1" xmlns="http://www.w3.org/2000/svg" xmlns:xlink="http://www.w3.org/1999/xlink">
    <!-- Generator: Sketch 39.1 (31720) - http://www.bohemiancoding.com/sketch -->
    <title>file remove</title>
    <desc>Created with Sketch.</desc>
    <defs></defs>
    <g id="Moduler" stroke="none" stroke-width="1" fill="none" fill-rule="evenodd">
        <g id="file-remove" fill="#BA3A26">
            <g id="Page-1">
                <g>
                    <g id="Release-29.sep-slettet-V2-Copy">
                        <g id="file-remove">
                            <g id="Outline_Version">
                                <g id="Group">
                                    <path d="M1.91666667,1.91666667 L21.0833333,1.91666667 L21.0833333,10.5416667 C21.0833333,11.0706667 21.5126667,11.5 22.0416667,11.5 L30.6666667,11.5 L30.6666667,18.2083333 L32.5833333,18.2083333 L32.5833333,10.5455 L32.5833333,10.5435833 L32.5833333,10.5416667 C32.5833333,10.4381667 32.5545833,10.3461667 32.5258333,10.2541667 C32.5181667,10.22925 32.5200833,10.2024167 32.5105,10.1794167 C32.4606667,10.05675 32.384,9.9475 32.2900833,9.8555 L22.7201667,0.283666667 C22.632,0.1955 22.5265833,0.124583333 22.4096667,0.0766666667 C22.2946667,0.0268333333 22.1700833,0 22.0416667,0 L0.958333333,0 C0.429333333,0 0,0.429333333 0,0.958333333 L0,41.2083333 C0,41.7373333 0.429333333,42.1666667 0.958333333,42.1666667 L20.125,42.1666667 L20.125,40.25 L1.91666667,40.25 L1.91666667,1.91666667 L1.91666667,1.91666667 L1.91666667,1.91666667 Z M23,3.27175 L29.3096667,9.58333333 L23,9.58333333 L23,3.27175 L23,3.27175 L23,3.27175 Z" id="Shape"></path>
                                    <path d="M33.5416667,21.0833333 C26.6723333,21.0833333 21.0833333,26.6723333 21.0833333,33.5416667 C21.0833333,40.411 26.6723333,46 33.5416667,46 C40.411,46 46,40.411 46,33.5416667 C46,26.6723333 40.411,21.0833333 33.5416667,21.0833333 L33.5416667,21.0833333 L33.5416667,21.0833333 Z M33.5416667,44.0833333 C27.7284167,44.0833333 23,39.353 23,33.5416667 C23,27.7303333 27.7284167,23 33.5416667,23 C39.3549167,23 44.0833333,27.7303333 44.0833333,33.5416667 C44.0833333,39.353 39.3549167,44.0833333 33.5416667,44.0833333 L33.5416667,44.0833333 L33.5416667,44.0833333 Z" id="Shape"></path>
                                    <path d="M39.39325,27.6900833 C39.0195,27.3163333 38.4119167,27.3163333 38.0381667,27.6900833 L33.53975,32.1865833 L29.04325,27.6900833 C28.6695,27.3163333 28.0619167,27.3163333 27.6881667,27.6900833 C27.3144167,28.0638333 27.3144167,28.6714167 27.6881667,29.0451667 L32.1846667,33.5416667 L27.6881667,38.0381667 C27.3144167,38.4119167 27.3144167,39.0195 27.6881667,39.39325 C27.876,39.5810833 28.1213333,39.6730833 28.3666667,39.6730833 C28.612,39.6730833 28.8573333,39.5791667 29.0451667,39.39325 L33.5416667,34.89675 L38.0400833,39.39325 C38.2279167,39.5810833 38.47325,39.6730833 38.7185833,39.6730833 C38.9639167,39.6730833 39.20925,39.5791667 39.3970833,39.39325 C39.7708333,39.0195 39.7708333,38.4119167 39.3970833,38.0381667 L34.89675,33.5416667 L39.39325,29.0451667 C39.767,28.6714167 39.767,28.06575 39.39325,27.6900833 L39.39325,27.6900833 L39.39325,27.6900833 Z" id="Shape"></path>
                                </g>
                            </g>
                        </g>
                    </g>
                </g>
            </g>
        </g>
    </g>
</svg>

<svg width="46" height="46" xmlns="http://www.w3.org/2000/svg"><g fill="#BA3A26" fill-rule="evenodd"><path d="M1.917 1.917h19.166v8.625c0 .529.43.958.959.958h8.625v6.708h1.916V10.542c0-.104-.028-.196-.057-.288-.008-.025-.006-.052-.016-.075a.963.963 0 0 0-.22-.324L22.72.284a.948.948 0 0 0-.31-.207.924.924 0 0 0-.368-.077H.958A.959.959 0 0 0 0 .958v40.25c0 .53.43.959.958.959h19.167V40.25H1.917V1.917zM23 3.272l6.31 6.311H23V3.272z"/><path d="M33.542 21.083c-6.87 0-12.459 5.59-12.459 12.459S26.673 46 33.542 46 46 40.411 46 33.542c0-6.87-5.589-12.459-12.458-12.459zm0 23C27.728 44.083 23 39.353 23 33.542 23 27.73 27.728 23 33.542 23c5.813 0 10.541 4.73 10.541 10.542 0 5.811-4.728 10.541-10.541 10.541z"/><path d="M39.393 27.69a.959.959 0 0 0-1.355 0l-4.498 4.497-4.497-4.497a.959.959 0 0 0-1.355 1.355l4.497 4.497-4.497 4.496a.959.959 0 0 0 1.357 1.355l4.497-4.496 4.498 4.496a.963.963 0 0 0 1.357 0 .959.959 0 0 0 0-1.355l-4.5-4.496 4.496-4.497a.959.959 0 0 0 0-1.355z"/></g></svg>
